;FLAVOR:Marlin
;TIME:1643
;Filament used: 1.00471m
;Layer height: 0.2
;MINX:84.756
;MINY:74.365
;MINZ:0.2
;MAXX:156.753
;MAXY:129.56
;MAXZ:9
;Generated with Cura_SteamEngine 5.3.0
M140 S50
M105
M190 S50
M104 S200
M105
M109 S200
M82 ;absolute extrusion mode
; Ender 3 Custom Start G-code
G92 E0 ; Reset Extruder
G28 ; Home all axes
G1 Z2.0 F3000 ; Move Z Axis up little to prevent scratching of Heat Bed
G1 X0.1 Y20 Z0.3 F5000.0 ; Move to start position
G1 X0.1 Y200.0 Z0.3 F1500.0 E15 ; Draw the first line
G1 X0.4 Y200.0 Z0.3 F5000.0 ; Move to side a little
G1 X0.4 Y20 Z0.3 F1500.0 E30 ; Draw the second line
G92 E0 ; Reset Extruder
G1 Z2.0 F3000 ; Move Z Axis up little to prevent scratching of Heat Bed
G1 X5 Y20 Z0.3 F5000.0 ; Move over to prevent blob squish
G92 E0
G92 E0
G1 F2700 E-5
;LAYER_COUNT:45
;LAYER:0
M107
G0 F6000 X91.062 Y96.863 Z0.2
;TYPE:SKIRT
G1 F2700 E0
G1 F1200 X109.898 Y79.621 E0.84933
G1 X110.485 Y79.098 E0.87548
G1 X111.216 Y78.485 E0.90721
G1 X112.165 Y77.788 E0.94637
G1 X112.698 Y77.442 E0.9675
G1 X113.802 Y76.819 E1.00967
G1 X114.365 Y76.546 E1.03048
G1 X115.537 Y76.065 E1.07261
G1 X116.091 Y75.877 E1.09207
G1 X117.27 Y75.554 E1.13273
G1 X117.893 Y75.423 E1.1539
G1 X119.151 Y75.24 E1.19619
G1 X119.731 Y75.192 E1.21554
G1 X120.982 Y75.165 E1.25716
G1 X121.629 Y75.191 E1.2787
G1 X122.909 Y75.324 E1.3215
G1 X123.528 Y75.428 E1.34238
G1 X124.724 Y75.704 E1.3832
G1 X125.263 Y75.863 E1.40189
G1 X126.445 Y76.292 E1.44371
G1 X127.059 Y76.559 E1.46598
G1 X128.2 Y77.143 E1.50862
G1 X128.7 Y77.44 E1.52796
G1 X129.728 Y78.139 E1.56931
G1 X130.19 Y78.496 E1.58872
G1 X130.679 Y78.898 E1.60978
G1 X131.419 Y79.547 E1.64252
G1 X150.581 Y96.948 E2.50342
G1 X151.053 Y97.388 E2.52488
G1 X151.362 Y97.688 E2.5392
G1 X151.779 Y98.111 E2.55896
G1 X152.534 Y98.968 E2.59695
G1 X152.887 Y99.417 E2.61595
G1 X153.571 Y100.401 E2.6558
G1 X153.895 Y100.931 E2.67646
G1 X154.48 Y102.035 E2.71802
G1 X154.721 Y102.566 E2.73741
G1 X155.167 Y103.735 E2.77903
G1 X155.352 Y104.326 E2.79963
G1 X155.639 Y105.472 E2.83892
G1 X155.746 Y106.036 E2.85801
G1 X155.9 Y107.226 E2.89792
G1 X155.941 Y107.813 E2.91749
G1 X155.953 Y109.039 E2.95827
G1 X155.922 Y109.652 E2.97869
G1 X155.788 Y110.864 E3.01924
G1 X155.688 Y111.446 E3.03889
G1 X155.407 Y112.642 E3.07975
G1 X155.238 Y113.207 E3.09936
G1 X154.821 Y114.348 E3.13977
G1 X154.589 Y114.882 E3.15913
G1 X154.038 Y115.968 E3.19964
G1 X153.718 Y116.515 E3.22071
G1 X153.027 Y117.547 E3.26202
G1 X152.678 Y118.005 E3.28117
G1 X151.917 Y118.893 E3.32007
G1 X151.517 Y119.309 E3.33927
G1 X150.586 Y120.164 E3.38131
G1 X150.096 Y120.561 E3.40228
G1 X149.106 Y121.27 E3.44278
G1 X148.61 Y121.582 E3.46227
G1 X147.542 Y122.168 E3.50279
G1 X147.001 Y122.424 E3.5227
G1 X145.864 Y122.881 E3.56345
G1 X145.3 Y123.069 E3.58323
G1 X144.198 Y123.368 E3.62121
G1 X143.386 Y123.535 E3.64878
G1 X141.814 Y123.815 E3.70189
G1 X139.203 Y124.324 E3.79036
G1 X136.717 Y124.882 E3.8751
G1 X134.279 Y125.501 E3.95877
G1 X131.828 Y126.199 E4.04353
G1 X129.397 Y126.967 E4.12832
G1 X128.369 Y127.322 E4.16449
G1 X126.922 Y127.802 E4.2152
G1 X126.332 Y127.984 E4.23574
G1 X125.754 Y128.139 E4.25564
G1 X125.205 Y128.269 E4.2744
G1 X124.571 Y128.403 E4.29596
G1 X123.99 Y128.505 E4.31558
G1 X123.544 Y128.57 E4.33057
G1 X122.882 Y128.652 E4.35275
G1 X122.286 Y128.705 E4.37266
G1 X121.451 Y128.75 E4.40047
G1 X121.101 Y128.76 E4.41211
G1 X120.516 Y128.76 E4.43157
G1 X119.995 Y128.745 E4.44891
G1 X119.312 Y128.709 E4.47166
G1 X118.731 Y128.657 E4.49106
G1 X117.924 Y128.558 E4.5181
G1 X117.553 Y128.503 E4.53057
G1 X116.991 Y128.403 E4.54956
G1 X116.212 Y128.238 E4.57604
G1 X115.848 Y128.151 E4.58849
G1 X115.322 Y128.01 E4.6066
G1 X114.504 Y127.762 E4.63503
G1 X113.071 Y127.286 E4.68526
G1 X112.348 Y127.035 E4.71071
G1 X109.955 Y126.279 E4.79418
G1 X107.492 Y125.576 E4.87937
G1 X105.038 Y124.952 E4.96359
G1 X102.574 Y124.397 E5.04759
G1 X100.06 Y123.907 E5.13278
G1 X98.314 Y123.612 E5.19168
G1 X97.575 Y123.468 E5.21672
G1 X96.626 Y123.229 E5.24927
G1 X96.033 Y123.049 E5.26988
G1 X94.903 Y122.632 E5.30994
G1 X94.378 Y122.402 E5.32901
G1 X93.299 Y121.85 E5.36932
G1 X92.784 Y121.547 E5.38919
G1 X91.777 Y120.871 E5.42953
G1 X91.295 Y120.504 E5.44968
G1 X90.339 Y119.678 E5.4917
G1 X89.912 Y119.26 E5.51158
G1 X89.106 Y118.372 E5.55146
G1 X88.736 Y117.913 E5.57107
G1 X88.047 Y116.949 E5.61048
G1 X87.732 Y116.449 E5.63014
G1 X87.131 Y115.352 E5.67174
G1 X86.863 Y114.782 E5.69269
G1 X86.396 Y113.603 E5.73487
G1 X86.22 Y113.063 E5.75376
G1 X85.929 Y111.967 E5.79148
G1 X85.807 Y111.377 E5.81151
G1 X85.628 Y110.121 E5.85371
G1 X85.581 Y109.53 E5.87343
G1 X85.556 Y108.33 E5.91335
G1 X85.579 Y107.73 E5.93332
G1 X85.703 Y106.494 E5.97464
G1 X85.799 Y105.9 E5.99465
G1 X86.061 Y104.723 E6.03476
G1 X86.226 Y104.146 E6.05472
G1 X86.639 Y102.976 E6.09598
G1 X86.867 Y102.437 E6.11545
G1 X87.396 Y101.367 E6.15515
G1 X87.693 Y100.845 E6.17512
G1 X88.373 Y99.802 E6.21654
G1 X88.727 Y99.326 E6.23627
G1 X89.457 Y98.451 E6.27417
G1 X89.81 Y98.073 E6.29137
G1 X90.25 Y97.63 E6.31214
G1 X91.062 Y96.863 E6.34929
G0 F6000 X90.792 Y96.568
G1 F1200 X109.632 Y79.322 E7.1988
G1 X110.228 Y78.792 E7.22533
G1 X110.979 Y78.163 E7.25791
G1 X111.947 Y77.452 E7.29786
G1 X112.48 Y77.106 E7.31899
G1 X113.627 Y76.459 E7.36279
G1 X114.213 Y76.176 E7.38444
G1 X115.408 Y75.686 E7.4274
G1 X115.985 Y75.491 E7.44765
G1 X117.164 Y75.168 E7.48831
G1 X117.835 Y75.027 E7.51112
G1 X119.118 Y74.841 E7.55424
G1 X119.722 Y74.792 E7.57439
G1 X120.998 Y74.765 E7.61684
G1 X121.67 Y74.793 E7.63921
G1 X122.95 Y74.926 E7.68201
G1 X123.618 Y75.038 E7.70454
G1 X124.837 Y75.32 E7.74615
G1 X125.376 Y75.479 E7.76485
G1 X126.605 Y75.925 E7.80833
G1 X127.219 Y76.192 E7.8306
G1 X128.404 Y76.799 E7.87488
G1 X128.925 Y77.109 E7.89505
G1 X129.973 Y77.822 E7.93721
G1 X130.444 Y78.187 E7.95702
G1 X130.943 Y78.597 E7.97851
G1 X131.688 Y79.251 E8.01148
G1 X150.854 Y96.655 E8.87255
G1 X151.332 Y97.101 E8.89429
G1 X151.647 Y97.407 E8.9089
G1 X152.064 Y97.83 E8.92865
G1 X152.848 Y98.721 E8.96813
G1 X153.215 Y99.189 E8.98791
G1 X153.912 Y100.192 E9.02853
G1 X154.236 Y100.722 E9.04919
G1 X154.844 Y101.87 E9.0924
G1 X155.095 Y102.423 E9.1126
G1 X155.541 Y103.592 E9.15421
G1 X155.74 Y104.229 E9.17641
G1 X156.032 Y105.397 E9.21645
G1 X156.143 Y105.985 E9.23635
G1 X156.299 Y107.198 E9.27703
G1 X156.341 Y107.809 E9.2974
G1 X156.353 Y109.035 E9.33818
G1 X156.32 Y109.696 E9.36019
G1 X156.186 Y110.908 E9.40075
G1 X156.077 Y111.537 E9.42198
G1 X155.79 Y112.757 E9.46367
G1 X155.614 Y113.344 E9.48405
G1 X155.188 Y114.507 E9.52524
G1 X154.946 Y115.063 E9.54541
G1 X154.395 Y116.149 E9.58592
G1 X154.05 Y116.738 E9.60862
G1 X153.359 Y117.77 E9.64993
G1 X152.982 Y118.265 E9.67062
G1 X152.221 Y119.153 E9.70952
G1 X151.788 Y119.604 E9.73031
G1 X150.857 Y120.459 E9.77236
G1 X150.348 Y120.872 E9.79416
G1 X149.319 Y121.609 E9.83625
G1 X148.802 Y121.933 E9.85655
G1 X147.713 Y122.53 E9.89785
G1 X147.172 Y122.786 E9.91776
G1 X146.013 Y123.252 E9.95931
G1 X145.405 Y123.455 E9.98063
G1 X144.279 Y123.76 E10.01943
G1 X143.456 Y123.929 E10.04737
G1 X141.891 Y124.208 E10.10025
G1 X139.28 Y124.716 E10.18872
G1 X136.815 Y125.27 E10.27275
G1 X134.389 Y125.886 E10.356
G1 X131.938 Y126.583 E10.44075
G1 X129.528 Y127.345 E10.52482
G1 X128.495 Y127.702 E10.56117
G1 X127.04 Y128.184 E10.61215
G1 X126.436 Y128.37 E10.63317
G1 X125.846 Y128.528 E10.65348
G1 X125.288 Y128.66 E10.67256
G1 X124.64 Y128.797 E10.69458
G1 X124.048 Y128.901 E10.71458
G1 X123.593 Y128.967 E10.72987
G1 X122.917 Y129.05 E10.75252
G1 X122.308 Y129.104 E10.77286
G1 X121.462 Y129.15 E10.80104
G1 X121.112 Y129.16 E10.81268
G1 X120.504 Y129.16 E10.8329
G1 X119.974 Y129.144 E10.85054
G1 X119.276 Y129.107 E10.87379
G1 X118.682 Y129.054 E10.89362
G1 X117.865 Y128.954 E10.921
G1 X117.483 Y128.897 E10.93384
G1 X116.908 Y128.794 E10.95327
G1 X116.119 Y128.627 E10.9801
G1 X115.744 Y128.537 E10.99292
G1 X115.206 Y128.393 E11.01145
G1 X114.378 Y128.142 E11.04022
G1 X112.94 Y127.664 E11.09063
G1 X112.217 Y127.413 E11.11608
G1 X109.845 Y126.664 E11.19881
G1 X107.393 Y125.964 E11.28363
G1 X104.939 Y125.34 E11.36784
G1 X102.497 Y124.79 E11.4511
G1 X99.983 Y124.299 E11.5363
G1 X98.237 Y124.005 E11.59518
G1 X97.477 Y123.856 E11.62094
G1 X96.51 Y123.612 E11.65411
G1 X95.917 Y123.432 E11.67473
G1 X94.742 Y122.998 E11.71639
G1 X94.196 Y122.758 E11.73622
G1 X93.096 Y122.195 E11.77732
G1 X92.581 Y121.892 E11.7972
G1 X91.554 Y121.203 E11.83833
G1 X91.033 Y120.807 E11.8601
G1 X90.077 Y119.981 E11.90212
G1 X89.616 Y119.529 E11.92359
G1 X88.795 Y118.623 E11.96426
G1 X88.411 Y118.146 E11.98462
G1 X87.722 Y117.182 E12.02403
G1 X87.381 Y116.641 E12.0453
G1 X86.769 Y115.522 E12.08773
G1 X86.491 Y114.929 E12.10951
G1 X86.024 Y113.75 E12.15169
G1 X85.833 Y113.166 E12.17212
G1 X85.537 Y112.048 E12.21059
G1 X85.415 Y111.458 E12.23063
G1 X85.229 Y110.153 E12.27447
G1 X85.181 Y109.538 E12.29499
G1 X85.156 Y108.315 E12.33567
G1 X85.181 Y107.69 E12.35648
G1 X85.308 Y106.43 E12.3986
G1 X85.404 Y105.836 E12.41861
G1 X85.676 Y104.613 E12.46028
G1 X85.841 Y104.036 E12.48024
G1 X86.271 Y102.82 E12.52314
G1 X86.508 Y102.26 E12.54337
G1 X87.048 Y101.169 E12.58385
G1 X87.345 Y100.647 E12.60383
G1 X88.052 Y99.563 E12.64687
G1 X88.406 Y99.087 E12.6666
G1 X89.165 Y98.178 E12.70599
G1 X89.526 Y97.791 E12.72359
G1 X89.975 Y97.339 E12.74478
G1 X90.792 Y96.568 E12.78215
G0 F6000 X90.522 Y96.273
G1 F1200 X89.7 Y97.048 E12.81972
G1 X89.242 Y97.509 E12.84134
G1 X88.873 Y97.905 E12.85934
G1 X88.085 Y98.848 E12.90021
G1 X87.731 Y99.324 E12.91994
G1 X87.01 Y100.428 E12.9638
G1 X86.7 Y100.971 E12.98459
G1 X86.15 Y102.083 E13.02586
G1 X85.903 Y102.664 E13.04685
G1 X85.456 Y103.926 E13.09138
G1 X85.291 Y104.503 E13.11134
G1 X85.009 Y105.772 E13.15458
G1 X84.913 Y106.366 E13.17459
G1 X84.781 Y107.674 E13.21832
G1 X84.756 Y108.299 E13.23912
G1 X84.781 Y109.546 E13.28061
G1 X84.83 Y110.184 E13.30189
G1 X85.023 Y111.539 E13.34741
G1 X85.145 Y112.129 E13.36745
G1 X85.446 Y113.268 E13.40663
G1 X85.652 Y113.897 E13.42865
G1 X86.119 Y115.076 E13.47083
G1 X86.407 Y115.692 E13.49344
G1 X87.03 Y116.833 E13.53668
G1 X87.397 Y117.415 E13.55957
G1 X88.099 Y118.397 E13.59971
G1 X88.483 Y118.874 E13.62008
G1 X89.32 Y119.798 E13.66155
G1 X89.815 Y120.284 E13.68462
G1 X90.771 Y121.11 E13.72664
G1 X91.331 Y121.535 E13.75002
G1 X92.378 Y122.237 E13.79195
G1 X92.893 Y122.54 E13.81182
G1 X94.014 Y123.114 E13.85371
G1 X94.581 Y123.364 E13.87432
G1 X95.778 Y123.807 E13.91677
G1 X96.394 Y123.995 E13.9382
G1 X97.379 Y124.244 E13.97199
G1 X98.16 Y124.398 E13.99846
G1 X99.906 Y124.691 E14.05735
G1 X102.42 Y125.183 E14.14255
G1 X104.84 Y125.728 E14.22506
G1 X107.294 Y126.352 E14.30927
G1 X109.735 Y127.049 E14.39371
G1 X112.086 Y127.791 E14.4757
G1 X112.809 Y128.042 E14.50116
G1 X114.252 Y128.522 E14.55174
G1 X115.09 Y128.776 E14.58086
G1 X115.641 Y128.923 E14.59983
G1 X116.026 Y129.016 E14.613
G1 X116.825 Y129.185 E14.64017
G1 X117.412 Y129.291 E14.66
G1 X117.806 Y129.35 E14.67326
G1 X118.633 Y129.451 E14.70097
G1 X119.24 Y129.505 E14.72123
G1 X119.953 Y129.543 E14.74498
G1 X120.492 Y129.56 E14.76292
G1 X121.123 Y129.56 E14.78391
G1 X121.473 Y129.55 E14.79555
G1 X122.33 Y129.503 E14.8241
G1 X122.952 Y129.448 E14.84487
G1 X123.642 Y129.364 E14.86799
G1 X124.105 Y129.297 E14.88355
G1 X124.709 Y129.191 E14.90394
G1 X125.371 Y129.051 E14.92645
G1 X125.938 Y128.917 E14.94583
G1 X126.539 Y128.756 E14.96652
G1 X127.158 Y128.566 E14.98806
G1 X128.621 Y128.082 E15.03931
G1 X129.659 Y127.723 E15.07584
G1 X132.047 Y126.968 E15.15914
G1 X134.487 Y126.274 E15.24351
G1 X136.913 Y125.658 E15.32676
G1 X139.356 Y125.109 E15.41004
G1 X141.967 Y124.601 E15.49851
G1 X143.526 Y124.323 E15.55118
G1 X144.359 Y124.152 E15.57947
G1 X145.51 Y123.841 E15.61912
G1 X146.14 Y123.631 E15.64121
G1 X147.343 Y123.148 E15.68433
G1 X147.884 Y122.892 E15.70423
G1 X148.994 Y122.284 E15.74633
G1 X149.531 Y121.948 E15.7674
G1 X150.6 Y121.183 E15.81112
G1 X151.128 Y120.754 E15.83375
G1 X152.059 Y119.899 E15.87579
G1 X152.51 Y119.43 E15.89743
G1 X153.286 Y118.525 E15.93708
G1 X153.691 Y117.993 E15.95932
G1 X154.382 Y116.961 E16.00063
G1 X154.752 Y116.33 E16.02496
G1 X155.303 Y115.244 E16.06546
G1 X155.555 Y114.667 E16.0864
G1 X155.99 Y113.482 E16.12839
G1 X156.173 Y112.872 E16.14957
G1 X156.466 Y111.629 E16.19204
G1 X156.584 Y110.952 E16.2149
G1 X156.718 Y109.74 E16.25546
G1 X156.753 Y109.055 E16.27827
G1 X156.741 Y107.805 E16.31985
G1 X156.696 Y107.147 E16.34178
G1 X156.54 Y105.934 E16.38246
G1 X156.425 Y105.323 E16.40314
G1 X156.128 Y104.132 E16.44396
G1 X155.915 Y103.449 E16.46776
G1 X155.469 Y102.28 E16.50937
G1 X155.208 Y101.705 E16.53038
G1 X154.577 Y100.513 E16.57524
G1 X154.253 Y99.983 E16.5959
G1 X153.53 Y98.942 E16.63805
G1 X153.163 Y98.474 E16.65783
G1 X152.349 Y97.549 E16.69881
G1 X151.932 Y97.126 E16.71857
G1 X151.611 Y96.814 E16.73346
G1 X151.127 Y96.363 E16.75546
G1 X131.957 Y78.955 E17.61672
G1 X131.207 Y78.296 E17.64992
G1 X130.698 Y77.878 E17.67183
G1 X130.198 Y77.491 E17.69286
G1 X129.15 Y76.778 E17.73502
G1 X128.609 Y76.455 E17.75598
G1 X127.379 Y75.825 E17.80194
G1 X126.765 Y75.558 E17.82421
G1 X125.489 Y75.095 E17.86936
G1 X124.95 Y74.936 E17.88805
G1 X123.708 Y74.648 E17.93045
G1 X122.991 Y74.528 E17.95463
G1 X121.711 Y74.395 E17.99743
G1 X121.015 Y74.365 E18.0206
G1 X119.714 Y74.392 E18.06389
G1 X119.086 Y74.442 E18.08484
G1 X117.778 Y74.631 E18.1288
G1 X117.058 Y74.782 E18.15326
G1 X115.879 Y75.105 E18.19392
G1 X115.28 Y75.307 E18.21495
G1 X114.061 Y75.806 E18.25876
G1 X113.453 Y76.099 E18.2812
G1 X112.262 Y76.77 E18.32667
G1 X111.729 Y77.116 E18.34781
G1 X110.722 Y77.856 E18.38937
G1 X109.971 Y78.485 E18.42195
G1 X109.366 Y79.023 E18.44888
G1 X90.522 Y96.273 E19.29858
G1 F2700 E14.29858
;MESH:Industry Tool.stl
G0 F6000 X98.67 Y106.056
G0 X100.778 Y111.678
;TYPE:WALL-INNER
G1 F2700 E19.29858
G1 F1200 X100.233 Y111.627 E19.31679
G1 X99.72 Y111.495 E19.33441
G1 X99.212 Y111.251 E19.35315
G1 X98.801 Y110.964 E19.36982
G1 X98.391 Y110.554 E19.38911
G1 X98.092 Y110.129 E19.40639
G1 X97.856 Y109.615 E19.4252
G1 X97.726 Y109.121 E19.44219
G1 X97.675 Y108.576 E19.4604
G1 X97.725 Y108.036 E19.47844
G1 X97.857 Y107.534 E19.4957
G1 X98.097 Y107.017 E19.51466
G1 X98.398 Y106.587 E19.53212
G1 X98.765 Y106.217 E19.54945
G1 X99.221 Y105.89 E19.56811
G1 X99.716 Y105.658 E19.5863
G1 X100.235 Y105.521 E19.60415
G1 X100.778 Y105.472 E19.62228
G1 X101.321 Y105.521 E19.64042
G1 X101.84 Y105.658 E19.65827
G1 X102.332 Y105.889 E19.67635
G1 X102.773 Y106.198 E19.69426
G1 X103.156 Y106.581 E19.71227
G1 X103.466 Y107.029 E19.73039
G1 X103.696 Y107.514 E19.74825
G1 X103.832 Y108.034 E19.76612
G1 X103.881 Y108.575 E19.78419
G1 X103.832 Y109.116 E19.80226
G1 X103.696 Y109.636 E19.82014
G1 X103.462 Y110.132 E19.83838
G1 X103.154 Y110.571 E19.85621
G1 X102.774 Y110.951 E19.87409
G1 X102.335 Y111.259 E19.89192
G1 X101.838 Y111.494 E19.91021
G1 X101.317 Y111.628 E19.9281
G1 X100.778 Y111.678 E19.9461
G1 F2700 E14.9461
G0 F6000 X100.772 Y111.779
G0 X102.427 Y111.415
G0 X116.014 Y113.399
G0 X120.067 Y115.137
G1 F2700 E19.9461
G1 F1200 X119.32 Y115.012 E19.9713
G1 X118.624 Y114.815 E19.99535
G1 X117.943 Y114.535 E20.01984
G1 X117.262 Y114.162 E20.04567
G1 X116.672 Y113.743 E20.06974
G1 X116.135 Y113.266 E20.09363
G1 X115.597 Y112.663 E20.12051
G1 X115.209 Y112.117 E20.14278
G1 X114.821 Y111.419 E20.16934
G1 X114.541 Y110.732 E20.19402
G1 X114.35 Y110.07 E20.21694
G1 X114.217 Y109.287 E20.24335
G1 X114.178 Y108.541 E20.2682
G1 X114.219 Y107.837 E20.29165
G1 X114.343 Y107.111 E20.31615
G1 X114.543 Y106.409 E20.34043
G1 X114.811 Y105.753 E20.364
G1 X115.174 Y105.089 E20.38917
G1 X115.611 Y104.469 E20.41439
G1 X116.13 Y103.89 E20.44026
G1 X116.637 Y103.436 E20.46289
G1 X117.234 Y103.007 E20.48734
G1 X117.872 Y102.648 E20.51169
G1 X118.57 Y102.355 E20.53687
G1 X119.302 Y102.142 E20.56223
G1 X120.032 Y102.017 E20.58686
G1 X120.806 Y101.975 E20.61264
G1 X121.516 Y102.016 E20.63629
G1 X122.243 Y102.14 E20.66082
G1 X122.945 Y102.34 E20.6851
G1 X123.599 Y102.607 E20.7086
G1 X124.321 Y103.007 E20.73605
